assets/icons/users-filled.svg

<?xml version="1.0" encoding="UTF-8" standalone="no"?>
<svg
   viewBox="0 0 24 24"
   height="24"
   id="svg7384"
   version="1.1"
   width="24"
   sodipodi:docname="users-filled.svg"
   inkscape:version="1.2 (1:1.2.1+202207142221+cd75a1ee6d)"
   xmlns:inkscape="http://www.inkscape.org/namespaces/inkscape"
   xmlns:sodipodi="http://sodipodi.sourceforge.net/DTD/sodipodi-0.dtd"
   xmlns="http://www.w3.org/2000/svg"
   xmlns:svg="http://www.w3.org/2000/svg"
   xmlns:rdf="http://www.w3.org/1999/02/22-rdf-syntax-ns#"
   xmlns:cc="http://creativecommons.org/ns#"
   xmlns:dc="http://purl.org/dc/elements/1.1/">
  <sodipodi:namedview
     pagecolor="#ffffff"
     bordercolor="#666666"
     borderopacity="1"
     objecttolerance="10"
     gridtolerance="10"
     guidetolerance="10"
     inkscape:pageopacity="0"
     inkscape:pageshadow="2"
     inkscape:window-width="1920"
     inkscape:window-height="1043"
     id="namedview7724"
     showgrid="true"
     inkscape:zoom="32"
     inkscape:cx="13.21875"
     inkscape:cy="10.9375"
     inkscape:window-x="0"
     inkscape:window-y="0"
     inkscape:window-maximized="1"
     inkscape:current-layer="svg7384"
     inkscape:pagecheckerboard="0"
     inkscape:snap-page="true"
     inkscape:showpageshadow="2"
     inkscape:deskcolor="#d1d1d1">
    <inkscape:grid
       type="xygrid"
       id="grid1040" />
    <inkscape:grid
       type="xygrid"
       id="grid839"
       dotted="true"
       spacingx="0.5"
       spacingy="0.5"
       empspacing="10" />
  </sodipodi:namedview>
  <metadata
     id="metadata20854">
    <rdf:RDF>
      <cc:Work
         rdf:about="">
        <dc:format>image/svg+xml</dc:format>
        <dc:type
           rdf:resource="http://purl.org/dc/dcmitype/StillImage" />
      </cc:Work>
    </rdf:RDF>
  </metadata>
  <defs
     id="defs7386">
    <linearGradient
       id="linearGradient5606"
       inkscape:swatch="solid">
      <stop
         id="stop5608"
         offset="0"
         style="stop-color:#000000;stop-opacity:1;" />
    </linearGradient>
    <linearGradient
       id="linearGradient4526"
       inkscape:swatch="solid">
      <stop
         id="stop4528"
         offset="0"
         style="stop-color:#ffffff;stop-opacity:1;" />
    </linearGradient>
    <linearGradient
       id="linearGradient3600-4"
       inkscape:swatch="gradient">
      <stop
         id="stop3602-7"
         offset="0"
         style="stop-color:#f4f4f4;stop-opacity:1" />
      <stop
         id="stop3604-6"
         offset="1"
         style="stop-color:#dbdbdb;stop-opacity:1" />
    </linearGradient>
  </defs>
  <path
     id="path409"
     style="color:#000000;fill:#808080"
     d="M 9.5 3 C 7.5670049 3 6 4.7908632 6 7 C 6 9.2091368 7.5670049 11 9.5 11 C 9.6710504 11 9.8374667 10.98022 10.001953 10.953125 C 10.019761 8.8691447 11.211083 7.0126017 12.945312 6.3046875 C 12.65697 4.4275098 11.225162 3 9.5 3 z M 9.5 12 C 6.1730863 12 4.272189 12.77078 3.2089844 13.833984 C 2.1457796 14.897189 2 16.194447 2 17 L 7.6367188 17 C 8.6348147 16.096731 10.276311 15.568548 12.318359 15.289062 C 11.202289 14.581617 10.372278 13.401677 10.097656 12.009766 C 9.903715 12.004047 9.70459 12 9.5 12 z M 16.710938 15.269531 C 16.701096 15.275872 16.691527 15.282796 16.681641 15.289062 C 16.695662 15.290982 16.708673 15.292979 16.722656 15.294922 C 16.719525 15.28631 16.714137 15.278152 16.710938 15.269531 z " />
  <g
     id="layer9"
     label="status"
     style="display:inline;stroke-width:0.8;opacity:1"
     transform="matrix(1.25,0,0,1.25,-1089.2503,235.74994)" />
  <g
     id="layer2"
     style="display:inline;stroke-width:0.8;opacity:1"
     transform="matrix(1.25,0,0,1.25,-788.00002,-223.00006)" />
  <g
     id="layer4"
     style="display:inline;stroke-width:0.8;opacity:1"
     transform="matrix(1.25,0,0,1.25,-788.00002,-223.00006)" />
  <g
     id="g1812"
     style="display:inline;stroke-width:0.8;opacity:1"
     transform="matrix(1.25,0,0,1.25,-788.00002,-223.00006)" />
  <g
     id="g6217"
     style="display:inline;stroke-width:0.8;opacity:1"
     transform="matrix(1.25,0,0,1.25,-788.00002,-223.00006)" />
  <g
     id="layer3"
     style="display:inline;stroke-width:0.8;opacity:1"
     transform="matrix(1.25,0,0,1.25,-788.00002,-223.00006)" />
  <g
     id="layer1"
     style="display:inline;stroke-width:0.8;opacity:1"
     transform="matrix(1.25,0,0,1.25,-788.00002,-223.00006)" />
  <path
     id="path310"
     style="color:#000000;fill:#808080;-inkscape-stroke:none"
     d="m 14.5,7 c -1.932997,0 -3.5,1.790861 -3.5,4 0,2.209139 1.567003,4 3.5,4 1.932997,0 3.5,-1.790861 3.5,-4 0,-2.209139 -1.567003,-4 -3.5,-4 z m 0,9 c -3.326917,0 -5.2278099,0.770779 -6.2910156,1.833984 -1.0632058,1.063206 -1.2089844,2.360462 -1.2089844,3.166016 h 15 c 0,-0.805554 -0.145779,-2.10281 -1.208984,-3.166016 -1.063206,-1.063205 -2.964099,-1.833984 -6.291016,-1.833984 z"
     sodipodi:nodetypes="sssssssccss" />
</svg>

<svg height="24" width="24" xmlns="http://www.w3.org/2000/svg"><path style="color:#000;fill:gray" d="M9.5 3C7.567 3 6 4.79 6 7s1.567 4 3.5 4c.171 0 .337-.02.502-.047.018-2.084 1.21-3.94 2.943-4.648C12.657 4.428 11.225 3 9.5 3zm0 9c-3.327 0-5.228.77-6.291 1.834C2.146 14.897 2 16.194 2 17h5.637c.998-.903 2.64-1.431 4.681-1.71a5.04 5.04 0 0 1-2.22-3.28A20.21 20.21 0 0 0 9.5 12zm7.21 3.27-.028.02.04.005c-.002-.009-.008-.017-.011-.025z"/><path style="color:#000;fill:gray;-inkscape-stroke:none" d="M14.5 7C12.567 7 11 8.79 11 11s1.567 4 3.5 4 3.5-1.79 3.5-4-1.567-4-3.5-4zm0 9c-3.327 0-5.228.77-6.291 1.834C7.146 18.897 7 20.194 7 21h15c0-.806-.146-2.103-1.209-3.166C19.728 16.771 17.827 16 14.5 16z"/></svg>
